src/assets/location.svg

<svg xmlns="http://www.w3.org/2000/svg" width="30" height="40" viewBox="0 0 30 40">
  <g fill="#030226">
    <path d="M14.9538462,0 C6.71296703,0 0.00879120879,6.61333333 0.00879120879,14.7425474 C0.00879120879,17.4187534 1.22549451,20.297019 1.27648352,20.4184282 C1.66945055,21.3385366 2.44483516,22.7676965 3.00395604,23.6054201 L13.250989,38.9211924 C13.6703297,39.5490515 14.290989,39.9089431 14.9538462,39.9089431 C15.6167033,39.9089431 16.2373626,39.5490515 16.6567033,38.9220596 L26.9046154,23.6054201 C27.4646154,22.7676965 28.2391209,21.3385366 28.6320879,20.4184282 C28.6830769,20.2978862 29.8989011,17.4196206 29.8989011,14.7425474 C29.8989011,6.61333333 23.1947253,0 14.9538462,0 Z M27.010989,19.7454743 C26.6602198,20.5701897 25.9384615,21.8996206 25.4364835,22.6506233 L15.1885714,37.9672629 C14.9863736,38.2699187 14.9221978,38.2699187 14.72,37.9672629 L4.47208791,22.6506233 C3.97010989,21.8996206 3.24835165,20.5693225 2.89758242,19.744607 C2.88263736,19.7090515 1.76703297,17.059729 1.76703297,14.7425474 C1.76703297,7.5698645 7.68263736,1.73441734 14.9538462,1.73441734 C22.2250549,1.73441734 28.1406593,7.5698645 28.1406593,14.7425474 C28.1406593,17.0631978 27.0224176,19.719458 27.010989,19.7454743 Z"/>
    <path d="M14.9538462,6.93853659 C10.5907692,6.93853659 7.04175824,10.4403252 7.04175824,14.7434146 C7.04175824,19.0465041 10.5907692,22.5482927 14.9538462,22.5482927 C19.3169231,22.5482927 22.8659341,19.0465041 22.8659341,14.7434146 C22.8659341,10.4403252 19.3169231,6.93853659 14.9538462,6.93853659 Z M14.9538462,20.8138753 C11.5613187,20.8138753 8.8,18.0908401 8.8,14.7434146 C8.8,11.3959892 11.5613187,8.67295393 14.9538462,8.67295393 C18.3463736,8.67295393 21.1076923,11.3959892 21.1076923,14.7434146 C21.1076923,18.0908401 18.3463736,20.8138753 14.9538462,20.8138753 Z"/>
  </g>
</svg>

<svg xmlns="http://www.w3.org/2000/svg" width="30" height="40"><g fill="#030226"><path d="M14.954 0C6.713 0 .009 6.613.009 14.743c0 2.676 1.216 5.554 1.267 5.675a23.67 23.67 0 001.728 3.187l10.247 15.316c.42.628 1.04.988 1.703.988s1.283-.36 1.703-.987l10.248-15.317a23.572 23.572 0 001.727-3.187c.051-.12 1.267-2.998 1.267-5.675C29.899 6.613 23.195 0 14.954 0zM27.01 19.745a21.688 21.688 0 01-1.575 2.906L15.19 37.967c-.203.303-.267.303-.469 0L4.472 22.651a21.698 21.698 0 01-1.574-2.906c-.015-.036-1.131-2.685-1.131-5.002 0-7.173 5.916-13.009 13.187-13.009 7.271 0 13.187 5.836 13.187 13.009 0 2.32-1.119 4.976-1.13 5.002z"/><path d="M14.954 6.939c-4.363 0-7.912 3.501-7.912 7.804 0 4.304 3.549 7.805 7.912 7.805 4.363 0 7.912-3.501 7.912-7.805 0-4.303-3.55-7.804-7.912-7.804zm0 13.875c-3.393 0-6.154-2.723-6.154-6.07 0-3.348 2.761-6.071 6.154-6.071 3.392 0 6.154 2.723 6.154 6.07 0 3.348-2.762 6.07-6.154 6.07z"/></g></svg>
